img/phone.svg

<svg width="24" height="24" viewBox="0 0 24 24" fill="none" xmlns="http://www.w3.org/2000/svg">
<path d="M21.3333 21.2737V18.1574L17.5966 16.289L14.6349 19.2508C16.7669 20.354 19.0416 21.0703 21.3333 21.2737ZM12.2784 17.836L16.3905 13.7239C16.7963 13.318 17.4163 13.2174 17.9296 13.4741L23.263 16.1408C23.7147 16.3666 24 16.8283 24 17.3333V22.6667C24 23.403 23.403 24 22.6667 24C11.2636 24 0 12.7364 0 1.33333C0 0.596954 0.596954 0 1.33333 0H6.66667C7.1717 0 7.63338 0.285336 7.85924 0.737049L10.5259 6.07038C10.7826 6.5837 10.682 7.20366 10.2761 7.60948L6.16404 11.7216C7.79615 14.0961 9.90385 16.2038 12.2784 17.836ZM7.71099 6.4034L5.84262 2.66667H2.72627C2.92974 4.95835 3.646 7.2331 4.74925 9.36513L7.71099 6.4034Z" fill="#2B2D33"/>
</svg>

<svg width="24" height="24" fill="none" xmlns="http://www.w3.org/2000/svg"><path d="M21.333 21.274v-3.117l-3.736-1.868-2.962 2.962c2.132 1.103 4.407 1.82 6.698 2.023zm-9.055-3.438l4.112-4.112a1.333 1.333 0 011.54-.25l5.333 2.667c.452.226.737.687.737 1.192v5.334c0 .736-.597 1.333-1.333 1.333C11.264 24 0 12.736 0 1.333 0 .597.597 0 1.333 0h5.334c.505 0 .966.285 1.192.737l2.667 5.333a1.333 1.333 0 01-.25 1.54l-4.112 4.112a23.937 23.937 0 006.114 6.114zM7.711 6.403L5.843 2.667H2.726c.204 2.291.92 4.566 2.023 6.698l2.962-2.962z" fill="#2B2D33"/></svg>
